X: 2
T: Jock Brown's 70th
R: hornpipe
M: 4/4
L: 1/8
K: Amix
cd|e3 e- efed|cA A/A/A eAcA|g3 g- gfga|f3 f- fefg|
a2 ed e2 ed|cA A/A/A eAcA|GA A/A/A d2 dc|GAde d2:|
|:cd|a2 cd ecde|cdac decd|a2 cd ecde|cdac dgcd|
a2 cd ecde|cdac decA|GA A/A/A d2 dc|GAde d2:|
|:dc|A2 GA- AGAA|GAAG A2 dc|A2 GA- AGAA|GAde d2 dc|
A2 GA- AGAA|GAAG A2 dc|GAde d3 d-|dcde d2:|


